app/assets/images/heroicons/solid/signal.svg

<svg width="24" height="24" viewBox="0 0 24 24" fill="none" xmlns="http://www.w3.org/2000/svg">
<path fill-rule="evenodd" clip-rule="evenodd" d="M5.63604 4.57538C5.92893 4.86828 5.92893 5.34315 5.63604 5.63604C2.12132 9.15076 2.12132 14.8492 5.63604 18.364C5.92893 18.6569 5.92893 19.1317 5.63604 19.4246C5.34315 19.7175 4.86827 19.7175 4.57538 19.4246C0.474874 15.3241 0.474873 8.67589 4.57538 4.57538C4.86827 4.28249 5.34315 4.28249 5.63604 4.57538ZM18.364 4.57538C18.6569 4.28249 19.1317 4.28249 19.4246 4.57538C23.5251 8.67589 23.5251 15.3241 19.4246 19.4246C19.1317 19.7175 18.6569 19.7175 18.364 19.4246C18.0711 19.1317 18.0711 18.6569 18.364 18.364C21.8787 14.8492 21.8787 9.15076 18.364 5.63604C18.0711 5.34315 18.0711 4.86828 18.364 4.57538ZM7.75736 6.6967C8.05025 6.9896 8.05025 7.46447 7.75736 7.75736C5.41421 10.1005 5.41421 13.8995 7.75736 16.2426C8.05025 16.5355 8.05025 17.0104 7.75736 17.3033C7.46447 17.5962 6.98959 17.5962 6.6967 17.3033C3.76777 14.3744 3.76777 9.62564 6.6967 6.6967C6.98959 6.40381 7.46447 6.40381 7.75736 6.6967ZM16.2426 6.6967C16.5355 6.40381 17.0104 6.40381 17.3033 6.6967C20.2322 9.62564 20.2322 14.3744 17.3033 17.3033C17.0104 17.5962 16.5355 17.5962 16.2426 17.3033C15.9497 17.0104 15.9497 16.5355 16.2426 16.2426C18.5858 13.8995 18.5858 10.1005 16.2426 7.75736C15.9497 7.46447 15.9497 6.9896 16.2426 6.6967ZM9.87868 8.81802C10.1716 9.11092 10.1716 9.58579 9.87868 9.87868C8.70711 11.0503 8.70711 12.9498 9.87868 14.1213C10.1716 14.4142 10.1716 14.8891 9.87868 15.182C9.58579 15.4749 9.11091 15.4749 8.81802 15.182C7.06066 13.4246 7.06066 10.5754 8.81802 8.81802C9.11091 8.52513 9.58579 8.52513 9.87868 8.81802ZM14.1213 8.81802C14.4142 8.52513 14.8891 8.52513 15.182 8.81802C16.9393 10.5754 16.9393 13.4246 15.182 15.182C14.8891 15.4749 14.4142 15.4749 14.1213 15.182C13.8284 14.8891 13.8284 14.4142 14.1213 14.1213C15.2929 12.9498 15.2929 11.0503 14.1213 9.87868C13.8284 9.58579 13.8284 9.11092 14.1213 8.81802ZM10.875 12C10.875 11.3787 11.3787 10.875 12 10.875C12.6213 10.875 13.125 11.3787 13.125 12C13.125 12.6213 12.6213 13.125 12 13.125C11.3787 13.125 10.875 12.6213 10.875 12Z" fill="#0F172A"/>
</svg>

<svg xmlns="http://www.w3.org/2000/svg" viewBox="0 0 24 24" fill="currentColor" aria-hidden="true" data-slot="icon">
  <path fill-rule="evenodd" d="M5.636 4.575a.75.75 0 0 1 0 1.061 9 9 0 0 0 0 12.728.75.75 0 1 1-1.06 1.06c-4.101-4.1-4.101-10.748 0-14.849a.75.75 0 0 1 1.06 0Zm12.728 0a.75.75 0 0 1 1.06 0c4.101 4.1 4.101 10.75 0 14.85a.75.75 0 1 1-1.06-1.061 9 9 0 0 0 0-12.728.75.75 0 0 1 0-1.06ZM7.757 6.697a.75.75 0 0 1 0 1.06 6 6 0 0 0 0 8.486.75.75 0 0 1-1.06 1.06 7.5 7.5 0 0 1 0-10.606.75.75 0 0 1 1.06 0Zm8.486 0a.75.75 0 0 1 1.06 0 7.5 7.5 0 0 1 0 10.606.75.75 0 0 1-1.06-1.06 6 6 0 0 0 0-8.486.75.75 0 0 1 0-1.06ZM9.879 8.818a.75.75 0 0 1 0 1.06 3 3 0 0 0 0 4.243.75.75 0 1 1-1.061 1.061 4.5 4.5 0 0 1 0-6.364.75.75 0 0 1 1.06 0Zm4.242 0a.75.75 0 0 1 1.061 0 4.5 4.5 0 0 1 0 6.364.75.75 0 0 1-1.06-1.06 3 3 0 0 0 0-4.243.75.75 0 0 1 0-1.061ZM10.875 12a1.125 1.125 0 1 1 2.25 0 1.125 1.125 0 0 1-2.25 0Z" clip-rule="evenodd"/>
</svg>
